humanity-icon-theme/Humanity/actions/24/go-jump.svg

<?xml version="1.0" encoding="UTF-8" standalone="no"?>
<!-- Created with Inkscape (http://www.inkscape.org/) -->

<svg
   xmlns:dc="http://purl.org/dc/elements/1.1/"
   xmlns:cc="http://creativecommons.org/ns#"
   xmlns:rdf="http://www.w3.org/1999/02/22-rdf-syntax-ns#"
   xmlns:svg="http://www.w3.org/2000/svg"
   xmlns="http://www.w3.org/2000/svg"
   xmlns:xlink="http://www.w3.org/1999/xlink"
   version="1.1"
   width="24"
   height="24"
   id="svg3734">
  <metadata
     id="metadata29">
    <rdf:RDF>
      <cc:Work
         rdf:about="">
        <dc:format>image/svg+xml</dc:format>
        <dc:type
           rdf:resource="http://purl.org/dc/dcmitype/StillImage" />
        <dc:title></dc:title>
      </cc:Work>
    </rdf:RDF>
  </metadata>
  <defs
     id="defs3736">
    <linearGradient
       id="linearGradient3798">
      <stop
         id="stop3800"
         style="stop-color:#bb2b12;stop-opacity:0"
         offset="0" />
      <stop
         id="stop3802"
         style="stop-color:#cd7233;stop-opacity:1"
         offset="1" />
    </linearGradient>
    <linearGradient
       id="linearGradient3786">
      <stop
         id="stop3788"
         style="stop-color:#f0c178;stop-opacity:0"
         offset="0" />
      <stop
         id="stop3796"
         style="stop-color:#e8a55c;stop-opacity:1"
         offset="1" />
    </linearGradient>
    <linearGradient
       id="linearGradient4456">
      <stop
         id="stop4458"
         style="stop-color:#f6daae;stop-opacity:1"
         offset="0" />
      <stop
         id="stop4460"
         style="stop-color:#f0c178;stop-opacity:0"
         offset="1" />
    </linearGradient>
    <linearGradient
       id="linearGradient3390-178-986-453-4-5">
      <stop
         id="stop3624-8-6"
         style="stop-color:#bb2b12;stop-opacity:1"
         offset="0" />
      <stop
         id="stop3626-1-1"
         style="stop-color:#cd7233;stop-opacity:1"
         offset="1" />
    </linearGradient>
    <linearGradient
       x1="-55.189419"
       y1="191.51634"
       x2="-31.522509"
       y2="182.47969"
       id="linearGradient3732"
       xlink:href="#linearGradient3390-178-986-453-4-5"
       gradientUnits="userSpaceOnUse"
       gradientTransform="matrix(0.92956783,0,0,0.99594396,51.30231,-181.73954)" />
    <linearGradient
       id="linearGradient7012-661-145-733-759-865-745-661-970-94-1-0">
      <stop
         id="stop3618-1-9"
         style="stop-color:#f0c178;stop-opacity:1"
         offset="0" />
      <stop
         id="stop3270-5-6"
         style="stop-color:#e18941;stop-opacity:1"
         offset="0.5" />
      <stop
         id="stop3620-9-3"
         style="stop-color:#ec4f18;stop-opacity:1"
         offset="1" />
    </linearGradient>
    <linearGradient
       x1="-31.522509"
       y1="182.47969"
       x2="-55.189419"
       y2="191.51634"
       id="linearGradient4322"
       xlink:href="#linearGradient7012-661-145-733-759-865-745-661-970-94-1-0"
       gradientUnits="userSpaceOnUse"
       gradientTransform="matrix(0.92956783,0,0,0.99594396,51.30231,-181.73954)" />
    <linearGradient
       x1="-31.522509"
       y1="182.47969"
       x2="-55.189419"
       y2="191.51634"
       id="linearGradient4324"
       xlink:href="#linearGradient7012-661-145-733-759-865-745-661-970-94-1-0"
       gradientUnits="userSpaceOnUse"
       gradientTransform="matrix(0.92956783,0,0,0.99594396,51.30231,-181.73954)" />
    <linearGradient
       x1="-55.189419"
       y1="191.51634"
       x2="-31.522509"
       y2="182.47969"
       id="linearGradient4452"
       xlink:href="#linearGradient3390-178-986-453-4-5"
       gradientUnits="userSpaceOnUse"
       gradientTransform="matrix(0.92956783,0,0,0.99594396,51.30231,-181.73954)" />
    <linearGradient
       x1="22"
       y1="-8.8817842e-16"
       x2="0"
       y2="9"
       id="linearGradient4462"
       xlink:href="#linearGradient4456"
       gradientUnits="userSpaceOnUse" />
    <linearGradient
       x1="26.679245"
       y1="-0.60377359"
       x2="0"
       y2="9"
       id="linearGradient3026"
       xlink:href="#linearGradient4456"
       gradientUnits="userSpaceOnUse" />
    <linearGradient
       x1="-41.10294"
       y1="175.43224"
       x2="-36.028557"
       y2="181.89241"
       id="linearGradient3794"
       xlink:href="#linearGradient3786"
       gradientUnits="userSpaceOnUse"
       gradientTransform="matrix(0.92956783,0,0,0.99594396,51.30231,-181.73954)" />
    <linearGradient
       x1="-41.062344"
       y1="175.67853"
       x2="-37.205814"
       y2="180.66101"
       id="linearGradient3804"
       xlink:href="#linearGradient3798"
       gradientUnits="userSpaceOnUse"
       gradientTransform="matrix(0.92956783,0,0,0.99594396,51.30231,-181.73954)" />
  </defs>
  <g
     transform="matrix(0,-1,1,0,8,22)"
     id="layer1">
    <path
       d="m 15,-4 c 5,3 2,7 -0.3125,7.9999913"
       id="path3014"
       style="fill:none;stroke:url(#linearGradient3804);stroke-width:6;stroke-linecap:round;stroke-linejoin:round;stroke-miterlimit:4;stroke-opacity:1;stroke-dasharray:none;display:inline;enable-background:new" />
    <path
       d="M 14.6875,3.9999913 C 12.375,4.9999825 8.75,4.999965 6.5,4.99993"
       id="path3765"
       style="fill:none;stroke:url(#linearGradient4452);stroke-width:6;stroke-linecap:round;stroke-linejoin:round;stroke-miterlimit:4;stroke-opacity:1;stroke-dasharray:none;display:inline;enable-background:new" />
    <path
       d="M 14.45283,-4.3207547 C 20,-1.7924528 17.5,2.5 15.4375,3.6249913"
       id="path3016"
       style="fill:none;stroke:url(#linearGradient3794);stroke-width:4;stroke-linecap:round;stroke-linejoin:round;stroke-miterlimit:4;stroke-opacity:1;stroke-dasharray:none;display:inline;enable-background:new" />
    <path
       d="M 7.65,-0.525 2.5,4.99993 7.65,10.525"
       id="path3169-2-3"
       style="fill:none;stroke:url(#linearGradient3732);stroke-width:5;stroke-linecap:round;stroke-linejoin:round;stroke-miterlimit:4;stroke-opacity:1;stroke-dasharray:none;display:inline;enable-background:new" />
    <path
       d="M 7.75009,-0.6251675 2.5,4.99993 7.750153,10.624983"
       id="path4277"
       style="fill:none;stroke:url(#linearGradient4322);stroke-width:3;stroke-linecap:round;stroke-linejoin:round;stroke-miterlimit:4;stroke-opacity:1;stroke-dasharray:none;display:inline;enable-background:new" />
    <path
       d="M 15.4375,3.6249913 C 13.375,4.7499825 9.75,4.999965 6.5,4.99993"
       id="path4279"
       style="fill:none;stroke:url(#linearGradient4324);stroke-width:4;stroke-linecap:round;stroke-linejoin:round;stroke-miterlimit:4;stroke-opacity:1;stroke-dasharray:none;display:inline;enable-background:new" />
    <path
       d="M 14.301887,-2.6509434 C 16.530142,-1.989033 18.960398,3.3161332 8.5,3.5 7.0002316,3.526362 5.5,3.5 6.5,2 L 8.14375,0.76875 c 1.5,-2 -0.5,-2.5 -1.5,-1.5 L 2,4 C 1.5,4.5 1.4724356,5.3333333 2,6 l 4.78125,5.14375 c 1,1 3.0589632,-0.06138 1.5,-1.5 L 6.5,8 C 5.4606912,7.0409186 6.968383,7.588929 8,6.5 20.849057,6.4716981 19.959296,-1.1515382 18.584905,-2.6433962"
       id="path4454"
       style="opacity:0.4;fill:none;stroke:url(#linearGradient3026);stroke-width:1;stroke-linecap:round;stroke-linejoin:round;stroke-miterlimit:4;stroke-opacity:1;stroke-dasharray:none;display:inline;enable-background:new" />
    <path
       d="M 6.5,2 8.35,0.49375 c 1.5,-2 -0.5,-2.5 -1.5,-1.5 L 2,4 m 0,2 4.7125,5.28125 c 1,1 2.9701984,0.02922 1.5,-1.5 L 6.5,8"
       id="path4464"
       style="opacity:0.4;fill:none;stroke:url(#linearGradient4462);stroke-width:1;stroke-linecap:round;stroke-linejoin:round;stroke-miterlimit:4;stroke-opacity:1;stroke-dasharray:none;display:inline;enable-background:new" />
    <path
       d="M 8.7264239,-0.09337158 6.3063674,2.3669234"
       id="path4466"
       style="opacity:0.51000001;fill:none;stroke:#f6daae;stroke-width:1;stroke-linecap:round;stroke-linejoin:round;stroke-miterlimit:4;stroke-opacity:1;stroke-dasharray:none;display:inline;enable-background:new" />
  </g>
</svg>

<?xml version="1.0" encoding="UTF-8" standalone="no"?>
<!-- Created with Inkscape (http://www.inkscape.org/) -->
<svg id="svg3734" xmlns:rdf="http://www.w3.org/1999/02/22-rdf-syntax-ns#" xmlns="http://www.w3.org/2000/svg" height="24" width="24" version="1.1" xmlns:cc="http://creativecommons.org/ns#" xmlns:xlink="http://www.w3.org/1999/xlink" xmlns:dc="http://purl.org/dc/elements/1.1/">
 <metadata id="metadata29">
  <rdf:RDF>
   <cc:Work rdf:about="">
    <dc:format>image/svg+xml</dc:format>
    <dc:type rdf:resource="http://purl.org/dc/dcmitype/StillImage"/>
    <dc:title/>
   </cc:Work>
  </rdf:RDF>
 </metadata>
 <defs id="defs3736">
  <linearGradient id="linearGradient4456">
   <stop id="stop4458" style="stop-color:#f6daae" offset="0"/>
   <stop id="stop4460" style="stop-color:#f0c178;stop-opacity:0" offset="1"/>
  </linearGradient>
  <linearGradient id="linearGradient3390-178-986-453-4-5">
   <stop id="stop3624-8-6" style="stop-color:#bb2b12" offset="0"/>
   <stop id="stop3626-1-1" style="stop-color:#cd7233" offset="1"/>
  </linearGradient>
  <linearGradient id="linearGradient3732" y2="182.48" xlink:href="#linearGradient3390-178-986-453-4-5" gradientUnits="userSpaceOnUse" x2="-31.523" gradientTransform="matrix(.92957 0 0 .99594 51.302 -181.74)" y1="191.52" x1="-55.189"/>
  <linearGradient id="linearGradient7012-661-145-733-759-865-745-661-970-94-1-0">
   <stop id="stop3618-1-9" style="stop-color:#f0c178" offset="0"/>
   <stop id="stop3270-5-6" style="stop-color:#e18941" offset=".5"/>
   <stop id="stop3620-9-3" style="stop-color:#ec4f18" offset="1"/>
  </linearGradient>
  <linearGradient id="linearGradient4322" y2="191.52" xlink:href="#linearGradient7012-661-145-733-759-865-745-661-970-94-1-0" gradientUnits="userSpaceOnUse" x2="-55.189" gradientTransform="matrix(.92957 0 0 .99594 51.302 -181.74)" y1="182.48" x1="-31.523"/>
  <linearGradient id="linearGradient4462" y2="9" xlink:href="#linearGradient4456" gradientUnits="userSpaceOnUse" x2="0" y1="-8.8818e-16" x1="22"/>
  <linearGradient id="linearGradient3026" y2="9" xlink:href="#linearGradient4456" gradientUnits="userSpaceOnUse" x2="0" y1="-.60377" x1="26.679"/>
  <linearGradient id="linearGradient3794" y2="181.89" gradientUnits="userSpaceOnUse" x2="-36.029" gradientTransform="matrix(.92957 0 0 .99594 51.302 -181.74)" y1="175.43" x1="-41.103">
   <stop id="stop3788" style="stop-color:#f0c178;stop-opacity:0" offset="0"/>
   <stop id="stop3796" style="stop-color:#e8a55c" offset="1"/>
  </linearGradient>
  <linearGradient id="linearGradient3804" y2="180.66" gradientUnits="userSpaceOnUse" x2="-37.206" gradientTransform="matrix(.92957 0 0 .99594 51.302 -181.74)" y1="175.68" x1="-41.062">
   <stop id="stop3800" style="stop-color:#bb2b12;stop-opacity:0" offset="0"/>
   <stop id="stop3802" style="stop-color:#cd7233" offset="1"/>
  </linearGradient>
 </defs>
 <g id="layer1" transform="matrix(0,-1,1,0,8,22)">
  <path id="path3014" style="stroke-linejoin:round;stroke-width:6;stroke:url(#linearGradient3804);stroke-linecap:round;enable-background:new;fill:none" d="m15-4c5 3 2 7-0.3125 8"/>
  <path id="path3765" style="stroke-linejoin:round;enable-background:new;stroke:url(#linearGradient3732);stroke-linecap:round;stroke-width:6;fill:none" d="m14.688 4c-2.313 1-5.938 1-8.188 0.9999"/>
  <path id="path3016" style="stroke-linejoin:round;stroke-width:4;stroke:url(#linearGradient3794);stroke-linecap:round;enable-background:new;fill:none" d="m14.453-4.3208c5.547 2.5283 3.047 6.8208 0.985 7.9458"/>
  <path id="path3169-2-3" style="stroke-linejoin:round;stroke-width:5;stroke:url(#linearGradient3732);stroke-linecap:round;enable-background:new;fill:none" d="m7.65-0.525-5.15 5.5249 5.15 5.5251"/>
  <path id="path4277" style="stroke-linejoin:round;stroke-width:3;stroke:url(#linearGradient4322);stroke-linecap:round;enable-background:new;fill:none" d="m7.7501-0.62517-5.2501 5.6251 5.2502 5.6251"/>
  <path id="path4279" style="stroke-linejoin:round;enable-background:new;stroke:url(#linearGradient4322);stroke-linecap:round;stroke-width:4;fill:none" d="m15.438 3.625c-2.063 1.125-5.688 1.375-8.938 1.3749"/>
  <path id="path4454" style="opacity:.4;stroke-linejoin:round;stroke:url(#linearGradient3026);stroke-linecap:round;enable-background:new;fill:none" d="m14.302-2.6509c2.228 0.6619 4.658 5.967-5.802 6.1509-1.4998 0.0264-3 0-2-1.5l1.6438-1.2312c1.5-2-0.5-2.5-1.5-1.5l-4.6438 4.7312c-0.5 0.5-0.5276 1.3333 0 2l4.7812 5.1438c1 1 3.059-0.06138 1.5-1.5l-1.7812-1.644c-1.0393-0.9591 0.4684-0.4111 1.5-1.5 12.849-0.0283 11.959-7.6515 10.585-9.1434"/>
  <path id="path4464" style="opacity:.4;stroke-linejoin:round;stroke:url(#linearGradient4462);stroke-linecap:round;enable-background:new;fill:none" d="m6.5 2 1.85-1.5062c1.5-2-0.5-2.5-1.5-1.5l-4.85 5.0062m0 2 4.7125 5.2812c1 1 2.9702 0.02922 1.5-1.5l-1.7125-1.781"/>
  <path id="path4466" style="opacity:0.51;stroke-linejoin:round;stroke:#f6daae;stroke-linecap:round;enable-background:new;fill:none" d="m8.7264-0.093372-2.42 2.4603"/>
 </g>
</svg>
